X: 90
T: The Irish Widow
%R: jig
B: "The Hibernian Muse" p.55 #2
F: http://imslp.org/wiki/The_Hibernian_Muse_%28Various%29
Z: 2015 John Chambers <jc:trillian.mit.edu>
P: No. XC.
M: 6/8
L: 1/8
K: G
% - - - - - - - - - - - - - - - - - - - - - - - - - - - - -
V: 1
B/c/ |\
dBG dBG | {F}E3 e3 | dcB ABG | G3 F2B/c/ |\
dBG dBG | {F}E3 e3 | dcB AGF | E3 G2 :|
|: B/c/ |\
ded gab | ded dBc | ded gab | ded dBc |\
dBG dBG | {F}E3 e3 | dcB AGF | E3 G2 :|
% - - - - - - - - - - - - - - - - - - - - - - - - - - - - -
V: 2 clef=bass middle=d
z |\
g3 G3 | ceg ceg | B3 c3 | dcd D2z |\
g3 G3 | ceg ceg | B3 d3 | c3  G2 :|
|: z |\
G3 g3 | G3  g3  | G3 g3 | G3 g3 |\
G3 g3 | ceg ceg | B3 d3 | c3 G2 :|

%%sep 2 1 500
%%sep 1 1 500

